X: 2
T: Biserka
C: Srbija
M: 3/8
L: 1/16
K: Am
|: "Am"A4 {^g}a2 | A4 {^g}a2 | e4 e2 | "E"^d2c2B2  \
|  "Am"A4 {^g}a2 | A4 {^g}a2     | "Dm"d2e2f2     | "E"e6 |
|  "Am"A4 {^g}a2 | A4 {^g}a2 | e4 e2 |  ^d3cBA \
|  "Dm"d3^cde | "Am"c3Bcd | "E"B3ABc | "Am"A6 :|
|: "C"[e4c2] [e2c] |    [g4e2] [fd2][ec2] | "G7"[d3B][ec][fd][ge] | "C"[e6c] \
|     [e4c2] [e2c] | "F"[a3f][ge][fd][ec] | "G7"[d3B][ec][fd][ge] | "C"[e6c] |
|1 "Am"e3ABc | e3ABc | e4 e2 | "E"^d3cBA \
|  "Am"e3ABc | e3ABc | "E"B3ABc | "Am"A6 :|
|2 "Am"e3ABc | e3ABc | e4 e2 | "E"^d3cBA \
|  "Dm"d3^cde | "Am"c3Bcd | "E"B3ABc | "Am"A6 ||
|: "Am"[c3A][BG][AF][GE] | "Dm"[F3D][EC][DB,][CA,] | "Am"[E3C]A^GA | [E6C] \
|  "Am"[c3A]BAG | "Dm"F3EDC | "E7"B,3A,B,C | "Am"A,4 "fine"z2 :|
